res/skins/Tango/buttons/btn_beatbox_up.svg

<?xml version="1.0" encoding="UTF-8" standalone="no"?>
<!-- Created with Inkscape (http://www.inkscape.org/) -->

<svg
   xmlns:dc="http://purl.org/dc/elements/1.1/"
   xmlns:cc="http://creativecommons.org/ns#"
   xmlns:rdf="http://www.w3.org/1999/02/22-rdf-syntax-ns#"
   xmlns:svg="http://www.w3.org/2000/svg"
   xmlns="http://www.w3.org/2000/svg"
   version="1.1"
   width="16"
   height="20"
   id="svg3063">
  <metadata
     id="metadata3073">
    <rdf:RDF>
      <cc:Work
         rdf:about="">
        <dc:format>image/svg+xml</dc:format>
        <dc:type
           rdf:resource="http://purl.org/dc/dcmitype/StillImage" />
        <dc:title></dc:title>
      </cc:Work>
    </rdf:RDF>
  </metadata>
  <defs
     id="defs3071" />
  <path
     d="M 6.9996967,5.0819 2.428178,13 h 9.143038 z"
     id="path3065"
     style="fill:#888888;fill-opacity:1" />
  <path
     d="M 12.5,0 C 14.430351,0 16,1.5696 16,3.5 v 13 C 16,18.4304 14.430351,20 12.5,20 H 2.5 C 1.519402,20 0.635958,19.6204 0,18.9688 V 16.5 C 0,17.8936 1.106351,19 2.5,19 h 10 C 13.893649,19 15,17.8936 15,16.5 V 3.5 C 15,2.1064 13.893649,1 12.5,1 H 2.5 C 1.106351,1 0,2.1064 0,3.5 V 1.0625 C 0.635958,0.4109 1.519402,0 2.5,0 h 10 z"
     id="path3067"
     style="font-weight:400;text-indent:0;text-align:start;line-height:normal;text-transform:none;block-progression:tb;color:#000000;fill:#666666;fill-opacity:1;marker:none;overflow:visible;font-family:Sans;-inkscape-font-specification:Sans" />
</svg>

<!-- Created with Inkscape (http://www.inkscape.org/) -->
<svg id="svg3063" width="16" height="20" version="1.1" xmlns="http://www.w3.org/2000/svg"><path id="path3065" d="m6.9997 5.0819-4.5715 7.9181h9.143z" fill="#888"/><path id="path3067" d="m12.5 0c1.9304 0 3.5 1.5696 3.5 3.5v13c0 1.9304-1.5696 3.5-3.5 3.5h-10c-0.9806 0-1.864-0.3796-2.5-1.0312v-2.4688c0 1.3936 1.1064 2.5 2.5 2.5h10c1.3936 0 2.5-1.1064 2.5-2.5v-13c0-1.3936-1.1064-2.5-2.5-2.5h-10c-1.3936 0-2.5 1.1064-2.5 2.5v-2.4375c0.63596-0.6516 1.5194-1.0625 2.5-1.0625h10z" color="#000000" fill="#666" style="block-progression:tb;text-indent:0;text-transform:none"/></svg>
